X: 31748
T: Pat Ward's
R: slide
M: 12/8
K: Dmajor
|:FDAD BDAG|FDAF E2EF|FDAD BDAF|1 Adce dBAG:|2 Adce d2d2||
d2fd edfd|d2fd B2B2|d2fd edef|gfed BdAB|
d2fd edfd|d2fd B2B2|gfed dcBA|BdcedBAG||

